Numix/16/emotes/face-plain.svg

<?xml version="1.0" encoding="UTF-8" standalone="no"?>
<svg
   xmlns:dc="http://purl.org/dc/elements/1.1/"
   xmlns:cc="http://creativecommons.org/ns#"
   xmlns:rdf="http://www.w3.org/1999/02/22-rdf-syntax-ns#"
   xmlns:svg="http://www.w3.org/2000/svg"
   xmlns="http://www.w3.org/2000/svg"
   xmlns:sodipodi="http://sodipodi.sourceforge.net/DTD/sodipodi-0.dtd"
   xmlns:inkscape="http://www.inkscape.org/namespaces/inkscape"
   width="16px"
   height="16px"
   viewBox="0 0 12 12"
   version="1.1"
   id="svg3097"
   inkscape:version="0.91 r"
   sodipodi:docname="face-plain.svg">
  <metadata
     id="metadata3112">
    <rdf:RDF>
      <cc:Work
         rdf:about="">
        <dc:format>image/svg+xml</dc:format>
        <dc:type
           rdf:resource="http://purl.org/dc/dcmitype/StillImage" />
      </cc:Work>
    </rdf:RDF>
  </metadata>
  <defs
     id="defs3110" />
  <sodipodi:namedview
     pagecolor="#ffffff"
     bordercolor="#666666"
     borderopacity="1"
     objecttolerance="10"
     gridtolerance="10"
     guidetolerance="10"
     inkscape:pageopacity="0"
     inkscape:pageshadow="2"
     inkscape:window-width="640"
     inkscape:window-height="480"
     id="namedview3108" />
  <g
     id="surface1">
    <path
       style=" stroke:none;fill-rule:nonzero;fill:rgb(100%,85.098039%,36.078431%);fill-opacity:1;"
       d="M 11.25 6 C 11.25 8.484375 8.898438 10.5 6 10.5 C 3.101562 10.5 0.75 8.484375 0.75 6 C 0.75 3.515625 3.097656 1.5 6 1.5 C 8.902344 1.5 11.25 3.515625 11.25 6 Z M 11.25 6 "
       id="path3100" />
    <path
       style=" stroke:none;fill-rule:nonzero;fill:rgb(38.823529%,38.823529%,38.823529%);fill-opacity:1;"
       d="M 5.15625 7.875 L 6.84375 7.875 C 6.996094 7.875 7.125 7.960938 7.125 8.0625 L 7.125 8.4375 C 7.125 8.539062 6.996094 8.625 6.84375 8.625 L 5.15625 8.625 C 5.003906 8.625 4.875 8.539062 4.875 8.4375 L 4.875 8.0625 C 4.875 7.960938 5.003906 7.875 5.15625 7.875 Z M 5.15625 7.875 "
       id="path3102" />
    <path
       style=" stroke:none;fill-rule:nonzero;fill:rgb(38.823529%,38.823529%,38.823529%);fill-opacity:1;"
       d="M 3.25 4.875 L 5 4.875 C 5.136719 4.875 5.25 4.957031 5.25 5.0625 C 5.25 5.167969 5.136719 5.25 5 5.25 L 3.25 5.25 C 3.113281 5.25 3 5.167969 3 5.0625 C 3 4.957031 3.113281 4.875 3.25 4.875 Z M 3.25 4.875 "
       id="path3104" />
    <path
       style=" stroke:none;fill-rule:nonzero;fill:rgb(38.823529%,38.823529%,38.823529%);fill-opacity:1;"
       d="M 7 4.875 L 8.75 4.875 C 8.886719 4.875 9 4.957031 9 5.0625 C 9 5.167969 8.886719 5.25 8.75 5.25 L 7 5.25 C 6.863281 5.25 6.75 5.167969 6.75 5.0625 C 6.75 4.957031 6.863281 4.875 7 4.875 Z M 7 4.875 "
       id="path3106" />
  </g>
</svg>

<svg xmlns="http://www.w3.org/2000/svg" width="16" height="16" viewBox="0 0 12 12">
 <g>
  <path d="m 11.25 6 c 0 2.484 -2.352 4.5 -5.25 4.5 c -2.898 0 -5.25 -2.02 -5.25 -4.5 c 0 -2.484 2.348 -4.5 5.25 -4.5 c 2.902 0 5.25 2.02 5.25 4.5 m 0 0" style="fill:#ffd85b;fill-opacity:1;stroke:none;fill-rule:nonzero"/>
  <path d="m 5.156 7.875 l 1.688 0 c 0.152 0 0.281 0.086 0.281 0.188 l 0 0.375 c 0 0.102 -0.129 0.188 -0.281 0.188 l -1.688 0 c -0.152 0 -0.281 -0.086 -0.281 -0.188 l 0 -0.375 c 0 -0.102 0.129 -0.188 0.281 -0.188 m 0 0" style="fill:#626262;fill-opacity:1;stroke:none;fill-rule:nonzero"/>
  <path d="m 3.25 4.875 l 1.75 0 c 0.137 0 0.25 0.082 0.25 0.188 c 0 0.105 -0.113 0.188 -0.25 0.188 l -1.75 0 c -0.137 0 -0.25 -0.082 -0.25 -0.188 c 0 -0.105 0.113 -0.188 0.25 -0.188 m 0 0" style="fill:#626262;fill-opacity:1;stroke:none;fill-rule:nonzero"/>
  <path d="m 7 4.875 l 1.75 0 c 0.137 0 0.25 0.082 0.25 0.188 c 0 0.105 -0.113 0.188 -0.25 0.188 l -1.75 0 c -0.137 0 -0.25 -0.082 -0.25 -0.188 c 0 -0.105 0.113 -0.188 0.25 -0.188 m 0 0" style="fill:#626262;fill-opacity:1;stroke:none;fill-rule:nonzero"/>
 </g>
</svg>
